X:1
T:Title
%%score { ( 1 4 ) | ( 2 3 ) }
L:1/8
M:4/4
K:Ab
V:1 treble nm="Grand Piano"
V:4 treble 
V:2 bass 
V:3 bass 
V:1
 z4 z2[Q:1/4=100] c2 | F2 G2 A2 [EA]2 | [DB]2 [EB]2 [Ec]2 [Ec]2 | B2 B2 A2 [CA]2 | [CG]6 [Ec]2 | %5
 [DB]2 [CG]2 [CA]2 .[B,DG]2 | [G,C=E]2 [F,CF]2 [CG]2 [_Ec]2 | z4 z2 G2 |[M:3/4] [A,F]6 | %9
[M:4/4] [B,F]4 [A,F]4 |] %10
V:2
 z4 z2 [F,A,F]2 | [A,C]2 [G,B,=E]2 [F,CF]2 [C,A,]2 | [B,,F,]2 [E,G,]2 [A,,A,]2 [A,,A,]2 | %3
 [E,G,E]2 [=E,G,C]2 [F,G,C]2 [F,,F,]2 | [C,=E,]6 [A,,A,]2 | [B,,F,]2 [C,=E,]2 F,2 z F | %6
 C,2 A,,F,, [C,=E,]2 [A,,A,]2 | [E,G,E]2 [F,C]2 [B,,F,]2 .[C,=E,C]2 |[M:3/4] [F,,F,]6 | %9
[M:4/4] [B,,D,]4 [F,,F,]4 |] %10
V:3
 x8 | x8 | x8 | x8 | x8 | z4 z2 B,,2 | x8 | x8 |[M:3/4] x6 |[M:4/4] x8 |] %10
V:4
 x8 | x8 | x8 | x8 | x8 | x8 | x8 | B2 A2 [DG]2 z B, |[M:3/4] x6 |[M:4/4] x8 |] %10

